web/ui/src/components/theme/workflow/svgs/view-params.svg

<svg height="24" viewBox="0 0 24 24" width="24" xmlns="http://www.w3.org/2000/svg"><g fill="none"><path d="m0 0h24v24h-24z" fill="#000" opacity="0"/><path d="m10.5606123 22.2728577h-4.53918373c-.66449396.0169055-1.30854743-.2201736-1.78908485-.6585705s-.75776564-1.0418081-.77009882-1.6761866l-.03367347-15.88817673c.08352479-1.29668994 1.19830182-2.31370707 2.55918367-2.33475715h12.495551c.6643667-.01725443 1.3084261.21953381 1.789005.6577271.4805789.4381933.7578508 1.04147779.7701787 1.67574439v5.95260219c-.0162224.3483965-.3168617.6228875-.6822245.6228875s-.6660021-.274491-.6822245-.6228875v-5.95260219c-.0176283-.6141399-.549821-1.10033324-1.1933877-1.09023903h-12.496898c-.64327912-.00939422-1.17503936.47640411-1.19338774 1.09023903l.03367347 15.88689099c.01835159.6136336.5503313 1.0990593 1.19338774 1.0889534h4.53918373c.1791745-.0108078.3549138.0504343.4846455.1688906.1297317.1184562.2016208.2833202.1982524.4546541-.0109983.350995-.3150471.6286178-.6828979.6235447zm-3.04408168-15.83675031c-.36078847 0-.65326531-.27917048-.65326531-.62354472s.29247684-.62354473.65326531-.62354473h9.42857138c.1789488-.01043357.3543257.05097544.4837547.16938888.1294291.11841343.2011367.28305978.1977964.45415584-.0109849.34998219-.3133959.62720315-.6802041.62354473zm0 3.98554361c-.36078847 0-.65326531-.2791705-.65326531-.62354475 0-.34437424.29247684-.62354472.65326531-.62354472h9.42857138c.2428923-.01514955.4744653.09985566.6008695.29840757.1264043.19855191.126674.44771788.0006998.6465186-.1259743.1988008-.3572978.3142625-.6002223.299592l-9.42991838.0012856zm.00134693 4.0318273c-.2402215.0104197-.46701781-.1059733-.59039097-.3029914-.12337316-.1970182-.12337316-.4428028 0-.639821.12337316-.1970181.35016947-.3134111.59039097-.3029914h2.21571428c.17894875-.0104336.35432567.0509754.48375467.1693889.1294291.1184134.2011367.2830598.1977964.4541558-.0124267.3494755-.3152364.6253708-.68155107.6209734zm12.20865305 7.832236h-5.1075918l-2.5591837-4.0459696 2.5591837-4.0472552h5.1075918l2.5591837 4.0472552zm-4.3169388-1.2458038h3.520898l1.7617959-2.8001658-1.7617959-2.8014514h-3.5141633l-1.7617959 2.8027371zm1.3051837-2.0814823c.2826936.1482113.6251432.1482113.9078368 0 .2792022-.1410164.4538438-.4178172.4538438-.7193263 0-.3015092-.1746416-.5783099-.4538438-.7193264-.2826936-.1482112-.6251432-.1482112-.9078368 0-.2768114.1428129-.4493165.4189823-.4493165.7193264 0 .300344.1725051.5765134.4493165.7193263z" fill="#536579" stroke="#536579" stroke-width=".5"/></g></svg>

<?xml version="1.0" encoding="UTF-8"?>
<svg width="24px" height="24px" viewBox="0 0 24 24" version="1.1" xmlns="http://www.w3.org/2000/svg" xmlns:xlink="http://www.w3.org/1999/xlink">
    <title>配置中心</title>
    <g id="页面-1" stroke="none" stroke-width="1" fill="none" fill-rule="evenodd">
        <g id="建木自动化-详情4备份-2" transform="translate(-962.000000, -600.000000)" fill-rule="nonzero">
            <g id="编组-13" transform="translate(811.000000, 585.000000)">
                <g id="配置中心" transform="translate(151.000000, 15.000000)">
                    <rect id="矩形" fill="#000000" opacity="0" x="0" y="0" width="24" height="24"></rect>
                    <path d="M10.5606123,22.2728577 L6.02142857,22.2728577 C5.35693461,22.2897632 4.71288114,22.0526841 4.23234372,21.6142872 C3.7518063,21.1758903 3.47457808,20.5724791 3.4622449,19.9381006 L3.42857143,4.04992387 C3.51209622,2.75323393 4.62687325,1.7362168 5.9877551,1.71516672 L18.4833061,1.71516672 C19.1476728,1.69791229 19.7917322,1.93470053 20.2723111,2.37289382 C20.75289,2.81108712 21.0301619,3.41437161 21.0424898,4.04863821 L21.0424898,10.0012404 C21.0262674,10.3496369 20.7256281,10.6241279 20.3602653,10.6241279 C19.9949025,10.6241279 19.6942632,10.3496369 19.6780408,10.0012404 L19.6780408,4.04863821 C19.6604125,3.43449831 19.1282198,2.94830497 18.4846531,2.95839918 L5.9877551,2.95839918 C5.34447598,2.94900496 4.81271574,3.43480329 4.79436736,4.04863821 L4.82804083,19.9355292 C4.84639242,20.5491628 5.37837213,21.0345885 6.02142857,21.0244826 L10.5606123,21.0244826 C10.7397868,21.0136748 10.9155261,21.0749169 11.0452578,21.1933732 C11.1749895,21.3118294 11.2468786,21.4766934 11.2435102,21.6480273 C11.2325119,21.9990223 10.9284631,22.2766451 10.5606123,22.271572 L10.5606123,22.2728577 Z M7.51653062,6.43610739 C7.15574215,6.43610739 6.86326531,6.15693691 6.86326531,5.81256267 C6.86326531,5.46818843 7.15574215,5.18901794 7.51653062,5.18901794 L16.945102,5.18901794 C17.1240508,5.17858437 17.2994277,5.23999338 17.4288567,5.35840682 C17.5582858,5.47682025 17.6299934,5.6414666 17.6266531,5.81256266 C17.6156682,6.16254485 17.3132572,6.43976581 16.946449,6.43610739 L7.51653062,6.43610739 L7.51653062,6.43610739 Z M7.51653062,10.421651 C7.15574215,10.421651 6.86326531,10.1424805 6.86326531,9.79810625 C6.86326531,9.45373201 7.15574215,9.17456153 7.51653062,9.17456153 L16.945102,9.17456153 C17.1879943,9.15941198 17.4195673,9.27441719 17.5459715,9.4729691 C17.6723758,9.67152101 17.6726455,9.92068698 17.5466713,10.1194877 C17.420697,10.3182885 17.1893735,10.4337502 16.946449,10.4190797 L7.51653062,10.4203653 L7.51653062,10.421651 Z M7.51787755,14.4534783 C7.27765605,14.463898 7.05085974,14.347505 6.92748658,14.1504869 C6.80411342,13.9534687 6.80411342,13.7076841 6.92748658,13.5106659 C7.05085974,13.3136478 7.27765605,13.1972548 7.51787755,13.2076745 L9.73359183,13.2076745 C9.91254058,13.1972409 10.0879175,13.2586499 10.2173465,13.3770634 C10.3467756,13.4954768 10.4184832,13.6601232 10.4151429,13.8312192 C10.4027162,14.1806947 10.0999065,14.45659 9.73359183,14.4521926 L7.51787755,14.4534783 L7.51787755,14.4534783 Z M19.7265306,22.2857143 L14.6189388,22.2857143 L12.0597551,18.2397447 L14.6189388,14.1924895 L19.7265306,14.1924895 L22.2857143,18.2397447 L19.7265306,22.2857143 Z M15.4095918,21.0399105 L18.9304898,21.0399105 L20.6922857,18.2397447 L18.9304898,15.4382933 L15.4163265,15.4382933 L13.6545306,18.2410304 L15.4095918,21.0399105 Z M16.7147755,18.9584282 C16.9974691,19.1066395 17.3399187,19.1066395 17.6226123,18.9584282 C17.9018145,18.8174118 18.0764561,18.540611 18.0764561,18.2391019 C18.0764561,17.9375927 17.9018145,17.660792 17.6226123,17.5197755 C17.3399187,17.3715643 16.9974691,17.3715643 16.7147755,17.5197755 C16.4379641,17.6625884 16.265459,17.9387578 16.265459,18.2391019 C16.265459,18.5394459 16.4379641,18.8156153 16.7147755,18.9584282 L16.7147755,18.9584282 Z" id="形状" stroke="#536579" stroke-width="0.5" fill="#536579"></path>
                </g>
            </g>
        </g>
    </g>
</svg>
